X: 1
T: Vatersay Bay
R: waltz
M: 3/4
L: 1/8
K: Amix
B<d|e4 g>f|f e3 B2|c d3 e<g|B G3 B2|
e4 g>f|f e3 B2|d G3 B2|A4 g>f|
e4 d<e|B A3 B2|c d3 B<d|e g3 B2|
A4 B<d|e A3 G2|g f3 d2|e4||

